X:1
T:Title
%%score 1 2 3 4
L:1/8
M:4/2
K:F
V:1 treble nm="Part_1"
V:2 treble-8 nm="Part_2"
V:3 treble-8 nm="Part_3"
V:4 bass nm="Part_4"
V:1
 G8 G8 | (F8 G8) | F8 D8 | (F8 G8) | F8 G4 B4- | B4 A4 G4 (3:2:1B6- | (3:2:2B2 A4 G8 ^F4 | G8 z8 | %8
 F8 G8 | F4 B8 A4 | B8 z8 | (B8 A8) | (G8 F8) | (F8 G8) | (A8 G8) | A8 B4 c4- | c4 B2 A2 G8 | %17
 F8 z8 | F8 (A8 | B8) G8 | (G8 F8) | G6 A2 B4 (3:2:1c6- | (3:2:2c2 B4 B8 A4 | B8 z8 | (F8 G8) | %25
 (F8 G8) | (F8 B8) | A8 B4 c4- | (c4 B8) A4 | B16 | z4 B8 A2 G2 | (A8 G8) | G8 A4 B4- | %33
 B2 A2 G8 ^F4 | G16 || z16 | z16 | z16 | z16 | (F8 G8) | (B8 c8) | (A8 G8) | z4 B8 A4 | %43
 (B8 (3:2:2G8) A4 | B4 c8 B4 | (c8 (3:2:2A8) B4 | c4 d8 c4 | (d8 B8) | c8 A4 B4- | B4 c4 A8 | %50
 B4 G8 ^F4 | G8 z4 B4- | B4 A2 G2 A4 G4 | G8 z8 | G8 G4 B4- | B4 A4 B8 | G8 z4 G4 | G8 G8 | %58
 (G8 B8) | (G8 F8) | z4 A8 G4 | A4 B4 c8 | B4 A4 G8 | F16 | z8 F8 | (A8 B8) | G8 G4 B4 | %67
 A4 G8 ^F4 | G8 z8 | (G8 F8) | G6 A2 B4 (3:2:1c6- | (3:2:2c2 B4 B8 A4 | B8 z8 | (F8 G8) | %74
 F4 B8 A4 | (3:2:2B16 z8 | (3:2:2A16 B8 | (3:2:4c12 B4 A4 G4 | (3(A8 B12) A4 | (3:2:2G16 ^F8 | %80
 G16 |] F8 (B8 | c8) B8 | B8 B4 c4- | (c4 B8) A4 | B16 | z8 B8 | (B8 c8) | d8 (d8 | c8) c8 | %90
 B8 c4 B4- | B2 A2 G8 ^F4 | G8 z8 | G8 (B8 | c8) B8 | (B8 c8) | (d8 c8) | (d8 c8) | B8 c4 d4- | %99
 d4 c4 B4 (3:2:1c6- | (3:2:2c2 B4 B8 A4 | B16 |] %102
V:2
 d8 d4 d4- | d4 c2 B2 c8 | d16- | d8 G8 | z4 d4 e4 f4- | f8 d4 B4 | (_e8 d8) | z4 B6 c2 d2 e2 | %8
 f4 d8 c4 | (3:2:2d8 _e4 c8 | B4 d6 e2 f4 | (g8 f8) | e8 c4 d4- | d2 c2 A4 B4 A2 G2 | F8 z8 | z16 | %16
 z16 | f8 f8 | d8 d8 | g12 f4 | e6 d2 c8 | z4 e4 d4 f4 | _e2 d2 c2 B2 c8 | B6 c2 d2 e2 f4- | %24
 f2 e2 d8 c4 | (d8 e8) | d4 f8 e2 d2 | c8 z8 | f8 f8 | d8 d8 | g6 f2 _e4 d4 | c8 z8 | z4 g4 f4 B4 | %33
 _e8 d8 | d16 || z16 | z16 | z16 | z16 | z16 | z16 | z8 (c8 | d8) (f8 | g8) (3:2:2e8 f4 | %44
 d4 c4 d8 | c8 z4 f4- | f4 e2 d2 e8 | d8 g8 | e4 f8 g4 | e8 f4 d4- | d4 c4 d8 | z8 z4 g4- | %52
 g4 f2 e2 f4 g4 | g8 z8 | z4 d8 c2 B2 | c8 B8 | z4 (3:2:2_e8 d4 d4- | d4 c4 d8 | %58
 z4 (3:2:2_e8 d4 d4- | d4 c4 d4 f4- | f2 e2 d2 c2 B2 c2 d2 e2 | f4 g4 f4 (3:2:1e6- | %62
 (3:2:2e2 d4 d8 c4 | d6 c2 B4 A2 G2 | A8 z4 d4- | d2 e2 f4 g8 | c8 z4 B4 | c4 _e4 d8 | B8 z4 B4 | %69
 c4 _e4 d8 | z4 d8 c4 | A4 B4 c8 | B4 d4 c8 | B8 z4 c4 | d6 e2 f8 | (3:2:2d16 e8 | (3:2:2f16 f8 | %77
 (3:2:2g16 c8 | (3f12 e4 (d8 | (3:2:2(e8) d16) | d16 |] f8 d4 B4 | f8 d8 | z4 d6 e2 f4- | %84
 f4 _e4 f6 e2 | d2 c2 B6 c2 d4 | _e8 d2 c2 B2 A2 | G4 F8 E4 | F4 (3:2:2f8 e4 d4 | e4 c4 c8 | %90
 z4 d4 e4 d4 | (e8 (3:2:2d8) c4 | B2 A2 G4 A6 B2 | c8 G4 g4- | g4 f6 e2 d2 c2 | B4 F8 E4 | F8 z8 | %97
 z4 B8 A4 | B4 d4 c4 B2 c2 | d2 e2 f4 g4 c4 | d4 e4 f8 | f16 |] %102
V:3
 G8 G8 | (A8 G8) | (A8 B8) | A4 d8 c4 | d8 z4 d4- | d4 c4 B4 G4 | B4 c4 A8 | G16 | z16 | z16 | %10
 B8 B8 | G8 A8 | c6 B2 A6 G2 | F8 z8 | z4 c4 _e4 d4 | f6 e2 d4 c2 B2 | A4 d8 c4 | d16 | z16 | %19
 B8 B8 | G8 A8 | c8 B4 A4 | G8 F8 | z8 B8 | B8 G8 | A8 c6 B2 | A6 G2 F8 | z4 f4 d4 _e4 | (B8 c8) | %29
 B12 A2 G2 | G8 G8 | c8 (3:2:2c8 d4 | _e8 d8 | B4 c4 A8 | G16 || z16 | z16 | (F8 G8) | (B8 c8) | %39
 (A8 G8) | (d8 e8) | (f8 e8) | d4 B4 c8 | B8 z4 c4 | G4 A4 G8 | z4 c6 B2 A2 G2 | F4 B4 A8 | z8 d8 | %48
 (c8 d8) | e4 c8 d4 | B4 c4 A8 | G4 d4 _e4 d4 | d8 z4 B4- | B4 A2 G2 A4 G4 | G4 B8 A2 G2 | %55
 F8 G6 A2 | B4 c8 B4 | c8 G8- | (G4 (3:2:2B8) A4 G2 F2 | G8 A8 | z4 A4 B8 | A4 G4 A8 | G4 F4 G8 | %63
 A8 z4 d4- | d4 c2 B2 B4 A2 G2 | A8 G4 d4 | _e2 d2 e2 d2 e4 d4 | _e2 d2 c2 B2 A8 | %68
 G4 d4 _e2 d2 e2 d2 | _e2 d2 c2 B2 A8 | G2 A2 B2 c2 d4 e4 | f4 B4 _e8 | d8 z4 c4 | d4 f8 e4 | %74
 d4 B4 c8 | (3:2:2B16 z8 | (3:2:2c16 d8 | (3:2:2e16 f8 | (3d12 c4 (B8 | (3:2:2(c8) A16) | G16 |] %81
 F8 G4 B4- | B4 A4 B4 F4 | G4 B8 A4 | (B8 c8) | B4 F4 G4 B4- | B4 A4 B4 F4 | G4 B8 A4 | B8 z4 B4 | %89
 (3:2:2c8 d4 e4 f4 | d8 c4 d4 | B4 c4 A8 | G4 B4 c6 d2 | e6 f2 d8 | c8 z4 F4 | G4 B8 A4 | (B8 c8) | %97
 B8 z4 F4 | G8 A4 B4- | B4 c4 d4 e4 | f4 B4 c8 | B16 |] %102
V:4
 G,,8 G,,8 | (D,8 _E,8) | (D,8 G,,8) | (D,8 _E,8) | D,8 z4 D,4- | D,2 E,2 F,4 G,6 A,2 | %6
 G,4 C,4 D,8 | z4 G,,6 A,,2 B,,2 C,2 | (D,8 _E,8) | D,4 B,,4 F,8 | B,,8 z4 B,,4 | (_E,8 F,8) | %12
 C,8 z4 D,4- | D,2 E,2 F,4 _E,4 G,4 | D,4 F,4 _E,4 G,4 | D,4 F,4 G,4 A,4- | A,2 F,2 G,4 _E,8 | %17
 D,16- | D,16 | z4 G,,6 A,,2 B,,4 | C,4 D,2 E,2 (F,8 | C,8) z8 | z16 | z4 B,,4 B,,6 C,2 | %24
 D,4 B,,4 _E,8 | (D,8 C,8) | D,12 B,,4 | F,6 G,A, _B,4 A,4 | (B,8 F,8) | B,,8 z4 B,,4 | %30
 _E,6 F,2 G,8 | z4 F,4 _E,4 C,4- | C,2 D,2 _E,4 F,4 G,4- | G,4 C,4 D,8 | G,,16 || (F,,8 G,,8) | %36
 (B,,8 C,8) | (A,,8 G,,8) | G,6 F,2 E,4 C,4 | (D,8 G,,8) | G,6 F,2 E,4 C,4 | (F,8 C,8) | %42
 z4 G,4 F,4 A,4 | G,8 C,8 | z8 z4 G,4 | (A,8 F,8) | z8 z4 A,4 | (_B,8 G,8) | A,8 D,4 G,4- | %49
 G,4 C,4 F,8 | B,,4 _E,4 D,8 | G,,16 | z8 z4 G,4- | G,4 F,2 E,2 F,4 G,4 | G,8 z8 | z8 z4 G,4 | %56
 _E,4 C,4 G,8 | z4 C,4 G,4 _B,4- | B,2 A,2 G,2 F,2 G,2 F,2 _E,2 D,2 | _E,8 (D,8 | F,8) G,8 | z16 | %62
 z4 D,4 _E,8 | D,16- | D,16 | (D,8 G,,8) | z8 G,8 | (C,8 D,8) | G,,8 G,8 | (C,8 D,8) | G,,8 z8 | %71
 z16 | z4 B,,8 A,,4 | B,,4 D,4 C,8 | z4 B,,4 F,8 | (3:2:2G,16 G,8 | (3F,12 E,4 D,8 | %77
 (3:2:2C,16 F,8- | (3:2:4F,4 E,4 D,8 (G,8 | (3:2:2(C,8) D,16) | G,,16 |] z16 | F,8 B,,8 | %83
 B,6 A,2 G,4 F,4 | (G,8 F,8) | z4 B,,4 _E,4 D,4 | C,8 z4 B,,4 | _E,4 D,4 C,8 | B,,8 z4 B,4 | %89
 A,6 B,2 C4 F,4 | B,8 A,4 B,4 | G,4 C,4 D,8 | z4 G,4 F,8 | E,4 C,4 G,8 | C,4 F,4 D,4 B,,4 | %95
 _E,4 D,4 C,8 | B,,4 B,8 A,4 | B,4 B,,4 F,8 | z8 z4 G,4- | G,4 A,4 B,4 A,4 | F,4 G,4 F,8 | B,,16 |] %102

